src/components/00-materials/images-raw/Broken Bottle.svg

<svg width="96" height="96" viewBox="0 0 96 96" fill="none" xmlns="http://www.w3.org/2000/svg">
<path d="M56.18 67.25L52.83 72.04L51.87 71.09L50.42 68.21L48.98 65.81L46.59 68.69L44.19 65.33L40.35 68.21V66.3L38.44 67.74L37 66.58L37.01 85L59.07 84.99L59.06 67.05L57.62 69.64L56.18 67.25ZM48.81 28.7L45.76 11L38.2 12.31L41.2 30C39.2584 31.136 37.7085 32.836 36.7564 34.8741C35.8043 36.9123 35.4952 39.1919 35.87 41.41L38.37 55.87L39.98 56.76L41.68 55L42 56.91L45.3 53.42L48.23 56.32L50.1 53.07L51.93 55.19L53.93 44.19L54.93 58.62L57.43 53.32L59.25 55.44L60.25 52.64L57.66 37.66C57.2715 35.4435 56.2162 33.3983 54.6349 31.7973C53.0536 30.1964 51.0215 29.1159 48.81 28.7V28.7Z" stroke="#00008F" stroke-width="2" stroke-linecap="round" stroke-linejoin="round"/>
</svg>

<svg width="96" height="96" viewBox="0 0 96 96" fill="none" xmlns="http://www.w3.org/2000/svg"><path d="M56.18 67.25l-3.35 4.79-.96-.95-1.45-2.88-1.44-2.4-2.39 2.88-2.4-3.36-3.84 2.88V66.3l-1.91 1.44L37 66.58 37.01 85l22.06-.01-.01-17.94-1.44 2.59-1.44-2.39zM48.81 28.7L45.76 11l-7.56 1.31 3 17.69a11.08 11.08 0 00-5.33 11.41l2.5 14.46 1.61.89 1.7-1.76.32 1.91 3.3-3.49 2.93 2.9 1.87-3.25 1.83 2.12 2-11 1 14.43 2.5-5.3 1.82 2.12 1-2.8-2.59-14.98a11.06 11.06 0 00-8.85-8.96v0z" stroke="#00008F" stroke-width="2" stroke-linecap="round" stroke-linejoin="round"/></svg>
